-----BEGIN PGP SIGNATURE-----

iQIzBAABCAAdFiEEDiJZF0FGcPRELCUN/VM8B8JkZI8FAmo97dwACgkQ/VM8B8Jk
ZI/F3BAAtbHR/JNnKSy7kpL4dQnrnaRJ7fOrNHxajIqIGXXt//ytqdbt742EbiKr
ho4tWLo/NgN+co1oXh5Q1oLnEGtdYZzPZvs30jzD3TFGpUczoZ/V/4hHiZiYK3B5
FUFM1k1anpvJsmNY2PYrMoqzVZJWY2b4qvm0Sh5D6PGc59XpmgYsQZs2+Mxcgbhx
q+C6WYpeCzD16LSF2oRa1AM0t52msWd6UWz9OsLcqXGtnXxkjbm+0yeT2uX41oYn
7TEPL3fyXKww7XWDG94090Ae+f73qIrJUd/GWpqH1b8WfIhFEY5e8C35mlQeriZ7
79FjbtJd8kLR+fs0POaO75ryuByLQiovEKfbBcRJLjFjNKIy4tqXnQC8+20y8cg2
VRPvx4Jq5/zoN6W62i2mAxJSl1ooMkMqRUvwepUULyu979imXT2VwMiSePh8Th/V
Gniyf/onKtLbgkYIwk/68x3qLtDT4D9FRTC1rlilF/QnZatF/oYf6pDbk/v7t1tj
fBWc/sGWs3zdv4Iwz75ewClOzvmlT9meKXlGUK2ubQNJaAWRO29iKOjUnzO2Crf3
qArGqQuRMckcBkUVJNLue+zo8+9T9lnwxql9MzmmFn4rv7OdqZFsnIqKL4on1z6H
uf0xRuH1d98v75vEPPa7+MBLFQZKFDPVNVGmBg9o8PAQdUPu/f4=
=Dr7j
-----END PGP SIGNATURE-----
