-----BEGIN PGP SIGNATURE-----

iQIzBAABCAAdFiEEDiJZF0FGcPRELCUN/VM8B8JkZI8FAmmgaPAACgkQ/VM8B8Jk
ZI9NgQ//baQNK/KxOklEcrNd77s9z4FmUSG3/9Qxp3IF56TTvNfG9bZMF/Zjj4jf
cn+VvzrBkU3z2BSkQhfszZDfMctcp6hf4NcEbocjdJ2wnNMux5A9WtKmnLNAhSHw
zpc1bZeDOiu9zqEG0yYiysAPD0s3aIA/DyutN45k2GVo2WprBDsd33Zwk/3Whq+x
VKchzvhcGo/VMC1YMX3vbEmJjB7APQ7Z1vpfhXPME1i5wap5VP8p4kG2zFPAHS/2
BEA9A0FX+NDWFDQEgIHU5kIxtN0tAObnZBIfdBi8ZQ5ia1uGtd5uMcYyQgHHujZ8
kESGOsffAN/fHGm7m8mQcO31XfKVEqzBhCnPGZAvXeGYbFfCCbVww3ASkH0gKRn+
exUdNmoD7UlZNR9wUkOZFSUOpx3xpUxjcHtb8NlCFRL4ekUkdOpyfqydeEh+Hr7Z
SUyHMITyUAzonk66/KDAaaVXegf5F7kio35YWozaFCfPeXhXPytsNnnYKHTwpsN/
qbq7IB5kI1jAqUdUsWHumAe7TeXZwAVXGJAGToLcw3dI//asd2tne0OH6ibQmkJV
ugML3pobZqTR8cTSbui6G+p9mb6P0ibftndq1Nbl1/myvzehC/VzDpempj6NBkHb
xHoGpFkhXIQ4vrhMQfk5zyrydbxEV+c6bV8YCW2gKeMdlU27h+4=
=9nUP
-----END PGP SIGNATURE-----
