-----BEGIN PGP SIGNATURE-----

iQIzBAABCAAdFiEEDiJZF0FGcPRELCUN/VM8B8JkZI8FAmqtbsIACgkQ/VM8B8Jk
ZI+aGhAAi8n1yY9sTj7OtJfkbBIk5azgGiAtBMAi3QkFOT/nscb7oSJkLiHy5vSE
g/UBWC4BQfoBMBNLXGCwsV1TnPIYmGSuotrmZbhfzB62ZjmRkARiamgumIThgW+v
6wPSUOQCeyz3FLZfWEZ9B5L9xDH9mcyZ6hZxPMKIhY+pQa/YMmr/YFSIZu9M0RMy
0gwCePZwW2eFabTWq2Eb7NBPLCZRBMTrM7LJkzqewOngVJHS3Hol67EYKeZ1H/sq
ERXLLC8w0yyZt8HzEhWFfJEuTH4bPcym519Aq93PKQBcLBetdgiiARyi02buK7v2
/sJJziiFTd2ExiudC7gj5WW1IYopVTI1+ldCCPsFE9OtdBi1S0dGB7dRjiWSRDIS
Nnhc/TwdgD8c82tBH5dwBFumcMDONn94co+sz0NRi1YWsFV8L17VMdNzMmwH3/Jt
7i5iDJ4ArMADKgVrFNPYeo+N40+5TlNb3FVkUQJ7+0NcR+fKMxhIhVn+o/gDYWwF
Zx80tvK5SWxVRUAYuURF1oxMvHQago8aw7ZeY7v9K9AfXYd21ZjZzAAeuKAd7x/w
+lFzrmFiCJgvjcULIAVFHeJVlXCXnaMcTkrfzsK/Wt2J2H48MDJykMBVXwDRc1Nr
k17GA32U82bblYoIgGGa8O8tprI+xnxNWbTto9MdZd6yacRdLnw=
=HqPb
-----END PGP SIGNATURE-----
