-----BEGIN PGP SIGNATURE-----

iQIzBAABCAAdFiEEDiJZF0FGcPRELCUN/VM8B8JkZI8FAmo97j4ACgkQ/VM8B8Jk
ZI/12A/8DkBdFCRNy/jpLGGdoaONLpa75gLbe8iXACjA3RbVxIy/7xL1A/yieP3T
/4xpA6PYhvM5h7iIqHb9w9WEGew4ONjvFU+l9gSN/MYN3UQ0E+lGblqQ4W/AeXhb
Y+3eE1V3zb6GzYsQa8c8jfaGXyp7ygMhDko/5Kdr8h8qoQZTOZdHffhnjUk83C7D
ZGNpTv+MaOvpd/WnrtGeXhQn7S7oyGpfqgReSsoargJTUeqUZStyIcDyXjL1eigZ
GDkAKGu63BkhEZQXSl7d2qxZAHp0R5Z29Xpm6G2S63V9b5Ih4BY0KGwo9Vao+kBP
WDYx6zuTDafF4USUUWwQTEYOoIqc+gkLiBYVVKud1fTwsELB1jOBKiGOWm7VT+ao
nngs2jJNtyRGHcHtpn8y0RMf31vgEh+3sSdFQbV5njjkQZr57d6ybrpEM3MjB1u8
NA+4rTd+wa63JmOSncrJLQmHuKxqR0Jatspk1WaCjL260j89DgZxyae2cv1+ScjJ
vPbdYWrNO79lVgrHaX1XfDKIbCcqUsjri9sSFQ3Og9mv/x6Mnds9xwZWtcJObs+W
3ljpmo9uv9mDJ5AXQX+H9UpnLoFmzmUX6xSnbeatpcSBQqRIZ6n0tsk9y1SvVIe/
IfRfK0kXLCkij2Rb5r04tls1wuydYcvBBANwnJAgSgeVc7vcFXY=
=D32Y
-----END PGP SIGNATURE-----
