-----BEGIN PGP SIGNATURE-----
Version: BCPG v1.68

iQGcBAABCgAGBQJm5ETCAAoJED1YOaImLLv7nGYL/2fqQKadWOKJCgdQsZ/vkZlI
yY0lMZZX+YOJU0aQUS+KA+P2Kgl0jSQENJGX2Kq3DQH5Gb/QP/PozCWV574+nIWK
3x8/apZax8dEaXDlbpEtVyEU+JuphhZshjvIoZJ7jXAqlE5PXnuJbLMjc3dt/c+F
lYMMzOc68ovaBA3FccTt+hSnLrAoKQ4y3RykkbdgMzrkfB9EC1D0y1Q0baZrZgHL
CzgVFSYunR1Ro6d4C8UwoFgXpCHyeR7OASux+Re1gOtmQ+lPIkkVX3GFsHuSqbe0
imWC2SR15YcVDrJ8ZVEkVaDB/bl2IH7RPNEvEtef7hAeXpMBBeWxKBbd+4M4ULDI
5+/sBUJW9jmHT6je55JWhtWcQZuPuD06fxjhSRYcWm09VvFBiDS03Br8AkXKfb+R
z4l06LQzftKr3EU4GpvywUdSFspJdY3VuG23bi7aSW85sCiG3Db0ZTm+7GCSARWz
HsztvFSYvLn6MDrXlm8Q3L6QfAk5JtXCqkhg7sgXWw==
=ri4r
-----END PGP SIGNATURE-----
