-----BEGIN PGP SIGNATURE-----
Version: BCPG v@RELEASE_NAME@

iQGzBAABCgAdFiEEb1OAdMzr818or5sGagl1+LESe4MFAmibT4gACgkQagl1+LES
e4MmSwwA4kRBOmKGKgO0j4JePPQ2hJMfAVG3cEKqzbqJLN2iqNmkwFnJpJcHBQ0o
AM5lHLgiBItKAR/+E5TPwjINoc0o41/2mvuORMVhOybhrzFMSmXSKGRFyEmvBObY
W8yqA8r7prWY4WeA+pcr24oVZL4Y/AHTQBoDmuJg+O5N14uRpq8YU00HkVkoXdDA
C5QroqWG7+AAR5MFW7l/3lvwvY4VfwEL4V3hMIWmWlddMEzN8NF91g+ZFN8MAoSD
cx1HxvrLgsFnh4qNL5CYeeS3yEtPs3KPOMWVmmYzjcQ4OlWo91O+wO+P/NPQqEmx
tkMjoAnx+M6LHt0oXfVaO1diQFsYAt0kEjEwqOnLnNHInvp8h8RhbXgwzjGmgMws
Iek/9Ou+PfoRrcbbL4mla6O+SAJSgckqMEHO1tcosdkAok1d2KXmuf7XOANpDQHo
q+mSXpMg1Zx+agneSmxILHdAUuLri0Q85sleDpS7eX2dWnyKAKvYI3Qu+hmadzsU
QkZAgYuY
=5da/
-----END PGP SIGNATURE-----
