-----BEGIN PGP SIGNATURE-----
Version: GnuPG v2

iQGcBAABCAAGBQJgow8XAAoJEOsJXafS9qwO7sgMALvLxW0nJ6rz5XaulIg6W53t
MWXAHbrZDEqzMG8LlVL7EfcrE5L67Vy9agCL99nCJB6xPmj9Gp0GZc193dl5We3V
FEnvp5lsBsY4VRXqOdjoI7GJl7+5TAgxX/rDnOSNcM9w+CSzafCV1NIoRvzLMNUI
NrOyprFJBr9Gn1M3qvAYu91DEwE2T7NTuZa1UpxmXc7usqw+P4o5/KOKTXdOo96u
Y4pekO9c0Qq21hsHOi1F2QgpqpMVIOnMwh1fQhHIctAikt1505JK6K1+QNgDuMFr
LlFx3kUqKSUn2a0tHd9azAxNvCMTHAtYi9wQn/7urh1rGVJsrQdme558terDS/cM
yzUF+4mk+sCbKStGadQXMsEr0wzWGFMee4aNZbZ7yPB5D4k/Z+cXD/9x2To5d8Fk
vrFrWTA5YQkT6q8+RT78P8FZ29JFA2CzwMBgMSLhuD7QpWXqC0tKE6kviJ1U0egx
IxtLBsKsONq39H3b2K0nvHVVXL1s2Pli2pVRU5WxQA==
=Nz+x
-----END PGP SIGNATURE-----
