-----BEGIN PGP SIGNATURE-----

iQIzBAABCgAdFiEEKBGMBwyyKgF1oujUPRLKKsGfMYEFAmRFoToACgkQPRLKKsGf
MYF+Hg/+IcIt42NpB24upYUblwgLJRSmHyCAVRm5g2nfAK1oKRh2ROS2p77854vM
pI4AFztlHS5fYkiWe3UfgBQ64QCxbogDMCznioU9Rc2+eASrzWeRIoQqIW4dptMg
5sYZzcWLKCYWFY39w04gdnZxBTR6KASln3UJu6J0KSHD8PYk6X0ESulFtGd+XwJ1
XvlKAc7MLV5mNkLIcf5hc/+7QR22Mys2kWbtAi1ibQ8d9keaKhMdepB1DSHQdtY9
7faXX9G73ywnNSIuaYiM8d+LDT+QG/eP7yiOGRwrLClwzHO2Jb4ATI/NA6m6w6gK
Xvj2kM+S9xPmqwdAWogX8sPSR7VFWw8E6VZv/OudDhEGIOtWqaa0MmWbMIogeznW
/o/hBpPbZE9b4oMLoqtihnUcwYhXCKhyAKCKU3Tfsjwn3O81ba69hMiEQf9mvkav
8/cqwxQceKH2+bIdnYZo3OUWl+PrIjEMvreb4Gsd6529U0nOmq9bvKp19il9vJpy
SleR1nghrh4OIAvoCI1rN+JXd2AQq7Ew7WK6GnogNDrUI3xU6nX1NQhnWjZV4nMU
KYh8aTARh82TmJBmlQC0jGhHnGhXh6k1lqbhBxHFXouSyBW9vfWaUBlV1ro14FeA
mezX2ZQGa3A8za8WKsoSOPP+C1Mc8BPeLu2L+18aX9qvDyF2hcQ=
=7Koa
-----END PGP SIGNATURE-----
