-----BEGIN PGP SIGNATURE-----
Version: BCPG v1.68

iQGcBAABCgAGBQJm5ESkAAoJED1YOaImLLv7MLoMAIDfm6O+0HZ2n6G4414qcAGS
o36g08DzF1JOBfUTuywG4GNC9VmF20EkXtOCkaKcGvPPPUYyk2UYt4FfNuIeTirq
5M9cbj7kyuiBLKn5WbjaLKtrc4pJdm6tkabA68RFvgGcFgt8nUpmtXrg6uNlurkg
BxDvVHU5KBiRPt2LbD/q+5Vk7pfNmOoxqqkmGyNeYNUF2B3o9rAEuRtw3lT2pKfN
uMHbrLaSrQQAQVuUN8z5K2LwynNVLA0RdU/kX4FD14UzsGcjPGKT4Hzei25Sh+Ef
6dIvJ/8yxOcnq+TMGeEV6XpMlg6eXAqthbvuJheGZliC26CVLcvabQOzURkTSrys
xT+FcOYdH+jY4jqerVlvebYEqwkTPMWJ5R5dn9TrYY0izWIss2k6qwLsQj9Xjz/H
V+emtnjAw7tZHu47BC5DGbiRmGG1uuxsM9+UhRa4xx11y4AQ8ZawaIl52yO92lRt
0GuUdMMmUU/SX232xBjkrVyQA0qnsrp9ACRsTeaTRw==
=/i9r
-----END PGP SIGNATURE-----
