-----BEGIN PGP SIGNATURE-----

iQIzBAABCAAdFiEEDiJZF0FGcPRELCUN/VM8B8JkZI8FAmo97eUACgkQ/VM8B8Jk
ZI+PKQ/+IQiJRst6vNZUbZNcmYDufHK4sKkXcdv01FTch+Up51bDZtRn2WQTSk9J
+vkczWMbMF7NoTh3uFOXPMRo3O97/QHcFycUM3Jo8Bf9DE6HDdJbiKl/pPq1GVK9
phi2hNb0+8osl7cUoCHWmTpWx2dEDlpuX4jhctg/dqzP2GmIjqvdpKyLmOfnOWcc
rOnf6IDrcYcqlS7Qx37DDgj65NlZbttPUzrM2HCYNUzotkfVtRYikL0O6POcSD19
CWDXu4PH3CDIGNS6VjvVgBmqAkdoz3nx6Iz6QR6bVkheTdOhzPZMh4c2+i76pN++
TYli4hye+fWTPGcUXDN474xkjTa/vJfg6a2IHk6UVHm2Fap2uyBmTXaggY6biC/7
ek5CmlFA315NAuTGMf7k7vXhRIGdJ78PujSooOzncNX+zknUMSDWVZaaoMncxW4C
v5PPI3PlGw51GrJkLqUvB2vCF6u7X5hKkhH/LCKIafPd7McosZ0iomZWCHvMJRNV
Eh9oTd8CtPHYJ4Sbz8mv9H4jqI0KFXxutjHn/CEBUIJ2j8hWed1KMjpGlhkJ4JWF
+MvEIR0y1gyIoljppVEDD3MlzZBk7ZsjnFrUXHdTYzQl+bfOjpTVKvfb4hbJau8t
5RMQrPDlKx7beN+Myqoy/7FtMKTb9UFD+63LBHXzm+BRL8z+8qA=
=hG53
-----END PGP SIGNATURE-----
