-----BEGIN PGP SIGNATURE-----

iQIzBAABCAAdFiEEDiJZF0FGcPRELCUN/VM8B8JkZI8FAmmgaR0ACgkQ/VM8B8Jk
ZI/DQA//UmetOu1A2WgEvd7lgiHiecM5Wq5TwzsMURCrTjSLfJNqmH20cQh7IJB8
veXCtLvAareAnu0nqZB56C59T3EE8LC2eUoJ1WpUyB/wVL10YzeUvKOkYFsTGySQ
hNGUWZ3xiZpa1+UWBz3gsFp0GN/GztbaeremgU1fSjGgHpF8l+IAp842kdICFooP
b30EClTYSILygeYpfi4ivmNvey/uiRF0AHe3skozz/Lx/Or69tOf1wtJSCXZckQG
GSvswdL90yhB6FuXDaBQ7CvKcUVujxzLpazxgLebbJ00jZ4OICeFzmq0TRDwhfB7
FoR49AC0vFAWTTilh5HFfzK9VXa+1lKtcQhYC4H5sRfoO6+PUYDFQwmxpMr6TH8R
KVIGrINp8DpwJc0Ryp2/g07f1OJkGRga7k3SzSkUqeK/YqHUcab3KPX9pR8SMjLM
NPbo7LDQI+8VfLggpHTYNZ8/mUJTB/KRLV1sn1SGto8QsuXJAdlnVBlfGGRXmyPz
W606oIOMG9z2cW3zOQBPM/GOmXcJ5295PY9WA6WZ9bMmpySCmOnSQUgZ/jACk9W1
8IPBan1UZ8T0amMpXNKJVzWyYG0QK1SD/VcZzgAhqxTVOfAngx9FHypWeYNeOQaT
Qs+dIHNBj3gf8yiw2CqCgKVuLVwyFbFAqT8+i2ymzUveTYYrP8w=
=zf6t
-----END PGP SIGNATURE-----
