-----BEGIN PGP SIGNATURE-----
Version: BCPG v1.68

iQGzBAABCgAdFiEEb1OAdMzr818or5sGagl1+LESe4MFAmSAz1sACgkQagl1+LES
e4NXlAwAh8zTfIYlQsDBRus3pnOZl+IB70k8OYe+YNQ3wlCy+UxgpLmH5gOvwMyn
CZr2HH9DsEAMjyKM2wLS6Uux+KX5R+VkGa/3IZu9uPrIDj1wosNCgS73WkR9ujXp
oDO4pqg/rZtAVUJBoj06g8JXksqtsjVPIWGKi+MGswBxcSC1qvrATnf2mkOU5K8s
MgM5CmlA5BPbEMQhXpMrkzxtwCyj/1VkiVSLZDULCFs41BU0xOHZgFl6FbvVBKq/
8jXbujMrRBRZlkZUuT5AtKOLXwFj13EX2wdOcId46pIVuz6yvSH6DndxmgTMezZI
kXFITyH8LfT8gP36uzwUSu2vSULQlIbLxeLR39oudTH+U8Bb2Yya1WEP9qxqf1Ta
9dCx0Y8uPaRadqAw2+B1//IDusa3IaQnSycYdxohi+NI+g+EDpICyH5HQNHXXiyu
jOi6J58qA1qPP4FhBcEQWZxGv24jfLug91a7mQ/wYE+4CsN+/KloLsaYUuLHml/L
r7ZuuqxE
=ydLN
-----END PGP SIGNATURE-----
