-----BEGIN PGP SIGNATURE-----

iQIzBAABCgAdFiEE53QXrBlBYKP6vQSWmiWcfuY2xe0FAmCfAhUACgkQmiWcfuY2
xe3CcA/+JtmxwU3f0vPPKfLWWW8qcNTazIoBGfAUrpt3tDZXeVo/t5JQN033O91j
UBhGmZGZWMHgyuDhc8sH3yYXn6MTwPOJzUr802lkSXbBtfHfZlZ0kkz2qMCLRMS/
d9qRU/qLDqADYqJeRqw7ik8wqryxPmchUqkBh1tcxKIhwMdwL1yQXElZAVMwytHA
YRHaxIht3yg5PTB/5Jua4Z9gqv9TIAtPK4s+87cqbrGIQtdzDqeAT+6AqHchVKPw
Acb98y0CX9PjK9UemRQy+gzLvoc3oJACxsd0VPSKDjwsJp6xKgKZAKqkSGEFYX/l
KRO+5rzcGBdEUMvpaPWQHgvHdEg4lCa9xoECs1PhE2QzHRXj3M1Cu3vwtMll0ciz
gxA+JQmx6Y/9gb3lpBlQgqfqaGljPPflDsmxDknseASV1p+p19IuE5gyPL9oJW1s
dWK809udUFSr2Kg+iSKYvwhZIY8YAupa/AwBJIbSdQajKxgTRf2ibQneYSejPdrG
eIpKGpypvZdS8RuEtMkwuMwiH6ipsZxsJYO/IaBj5VlhRgBvuyN3hbxIxtYvmJRC
tk2NfY6WHOpLzV8JD+tzLmTYPL0/pLfqxQoJro627jMglSf7YJWPb5ZVPO7niVjb
d5AuFxmEmyE+1/D99mm+toojV97CKs7RRd5+cM/wCHZTu2bVxVE=
=Y5gd
-----END PGP SIGNATURE-----
