-----BEGIN PGP SIGNATURE-----

iQIzBAABCAAdFiEEDwb/hr7q9OcYZu5SMu5TVaa8bkIFAmoDra8ACgkQMu5TVaa8
bkJyng//Ts5BA0YtOgKPGuDvWxS9fcersCjASOJ+QoDsiyTnTY9u4S6qbyjBhrbV
m8nqf7DLk+hhLSifa+xSYPeNgDBlVw7iKtkc43OAszCz59RzogPfvHBIZGqNj8Y2
Ynofzos6EHKEy43ygLJG1JuwtCbAFv7ipfWb/OiLmj73+C+3kvl26C2Yd9xGk5zH
4H7h7Fd/sPFXplD0O36+MptzAFWfFZuSJVC3UdWcda3cz7TjaYxZBghz+Ny1P6Gt
AKJhfrRxYh1F6NZlpCf94NHhqi5m9DWOTTPDREcxSiJ1c8qgAr79AxpMIkWQ4lYh
FDDZT3IW3oaCw3SA2+47EjhNgSz+O6w1FbphpIZGhHTM3T8WEBjurESfxIYGgs3O
1SkQt6ZcJRAmNdoJYNEe7L0V9PkouAAd19a+6FXLSmCmFExuIRb9jwzlBBz6szCE
HUItCzy2d+8r0D7EJXIn+D0oXFDVz3yqA3uEUuIG9DiewtWofjWD33UO52WAyTzZ
ufQxiEaESkfAp0CEv4t+aPoWCBmAwu0N1CsbLALD0MDwuz9Ny4On6PgxhdxEEYVJ
prK8zuLMmYJnJu+QuXPBk5MHcOOoklU7t+kdM99GF7CFoLAOa9JYXLkav7QjUQ7o
hKW6xuflUVLxqr4720VTOFnF8U1ZpqoQzKCc2xMabX/hJoH+SL4=
=vCqX
-----END PGP SIGNATURE-----
