-----BEGIN PGP SIGNATURE-----

iQIzBAABCAAdFiEEpfSDzXM6TrrqN4sq6Il5+5swrPIFAmaQUjgACgkQ6Il5+5sw
rPLmrxAAqsCUBKKe+3Jw8q2iKXoFL7F+mCEh26Sz3hNiPwaFRlKn9T6T1LF1rSu2
TYRbkXouVLqr+BOrdql+wawrTKtoPzCJCtG/ukqvhvTjmMRXMYZedPn6vXL+Y/wi
m0foAn4bUe8yWy+z3o/KVjmgn6udO59oqVbia3w0/GrQBdiWo7lFBIHp72RyaO1p
PiUhRLTtkMr9VQ/u+AzcLtfvz7fowo7ueIKVlfSGCiMnM0T7X1SYmR1w346cwHI3
+y94TsXvrtv4JuRDan85sx/NGzzOOf4ODc65Y0ZpB1GNUYBI3lluSVapbicpUIvY
e6NTxByaaj7AIATAQ/7/Hcqi0hbMgOhxq0Ua/PvLP9TQuwiDYlIQohZ+lZ1xGih2
wFHJBsX9Ez2ojF9MgHGQp1De6b6NentYg45nnnpUbH4gcZoXlBUgMUNJ2aCTVQSG
Ob9Z+SsDmvPCDwn8tpUKdltX79XsmDmgO+QBdFK/7bxe0gOghZpXmDI//n5VtkZd
QNZHbW39C9kuwhQZGnVVSJCpRKTJjEKslGGQTKyAzAe6C1tnkGJGFtvho+hfUCtI
Gz+pkCWh29w89BDe89jyvMEU+3wc10aT8/hYKG03YcZVy6l1U/GHPG4SPfBF7Mip
cmk/cxSH59yce6M6QEIExtx8nzefQsGzXPMVW0/vahAUsL1QXII=
=gm93
-----END PGP SIGNATURE-----
