-----BEGIN PGP SIGNATURE-----

iQIzBAABCgAdFiEE7gyocwdAkvgG9Ztl02SrqjmkcyAFAmc73f4ACgkQ02Srqjmk
cyCvBhAAg/oU+zgJ9wQScHMX3RBQhIxXs01SGtvbIauIHCSfUWXpMbxhkJuU2hEV
UT49qkEJLUwYNF0x+qylx7otIyHuhN8G89dXWTMaf31x2vRDdHXE1CeILomxXGJf
sg45DQh/aJ/StXJQTKDmWJ4XsfH/LP19upvZugwCBTiIbsRnPiWGQVENlQxnkoc+
p9fgR1In98zxMAUlFb2SWfV8nlvzsejzKs2f2LQxGUbZdrzNtpp6tnlo7xL2Jdp1
8oc+p9WB+GDkHap9l7YTpc7ELx8o+hkG7wlcbYfzjQpgkS1hURGotfnp1CCwg2/U
bZy0xhxHmDke61eNn0YDHaF5XVz20kxA+bDm30Gb5tjqnw/PUXoo6MNMbwBsWpUm
2xsI8D8zBv+bc37xYL+DwUUqKImGb9e8k/Ij5c/cALabI5jc9lv11o38sbgxJryv
Ww3fBbSPqh3hCzxO/X+4qREzRGuFv91CSBktEiOwk034rqlT5GvGQMARgLi6CE0w
RQK/STGTQ/RDYNiX4gCHYL48GX0SINRFIWiTG2AV+wgoKr1DDIPOPMjqMGtlz0Ue
8jAOxRR3Ey9/wSPrdDmPcey9wsm3W38QCpI/glhijenC+D4fE2mrvSnUOxhIiBSl
qFLM0q4I584RjVB0MOAIyITKQ5RsN+/Qv+HX1ZQQnMOvBbsaKwU=
=Bby8
-----END PGP SIGNATURE-----
