-----BEGIN PGP SIGNATURE-----
Version: BCPG v@RELEASE_NAME@

iQGzBAABCgAdFiEEb1OAdMzr818or5sGagl1+LESe4MFAmhULo8ACgkQagl1+LES
e4Oh5QwAiM2kyu1/NlMbWKH4hbiRSeTtEJGAllVdYjSSGni6uhBU2V2G7E2ik99A
ne4SwDwAXwkE3kVnMJ+DJaSAW4uK8AzOXrynZ4W3TWe5D3cR0Rwm8ZSQ1BHKi2ud
9q7lRnnMhRByiK6kOSils6PscUx0/13sFszE1rqo16cOeUaX6DHXwU1WWpCC+4R9
TxVIjNDnTk/XCXe7hIwbAdl5yfI8Zcqe79mxSdi7hTVa5aT2yfRiBrcOb+nfDYl/
4VkDUbivDE/XUBdwOfcrrF0HymlBHnGnaIVF9O8it5Uu2U+tlVdJZqb9C1ImM9/9
sHRRdZV7yojdwGW4NQT6YfPrgkQ8kwUm7XCaN4NX7VU7lxlU8s+CxPM7sx974Pa5
fVZHc2CcOl2TmEfNmbqhHX75IzROsBVFcRkmRRcsPM+5hPtI/s77mgvDp3YfON7X
kEvHHwqnwrEUZ9MdOcyuJEucXbRgkD6Wo9k8X4BfFkR5RZvIzY6Hi/aWVSPxWJe5
lk14St4C
=EiD9
-----END PGP SIGNATURE-----
