-----BEGIN PGP SIGNATURE-----

iQIzBAABCAAdFiEEDiJZF0FGcPRELCUN/VM8B8JkZI8FAmmgaJYACgkQ/VM8B8Jk
ZI+xew//WtDPSyCdR15bbhN2+vDPha1wNiRMNkv1tlxiGvgVCCsDdmmPp3LADF1J
j3fneslWUiRaB6nfLJ54moyCIFWKl4TOXTVi/lAVHAa0OCuUE9cFdfgW0+t6Zw++
Ceyl8bkJZU8Fv9nXwsVX7xQjTrcKFeIVNvl+bDNT9aAqq3Jsb/TEnUuRcdIOg7pY
up3sv6ODbz+JUBtFgkR/eKkBky/4IxPMNmNCsVh5FCi11i+Aws4gR0pt0rf4ZiWf
M+XedoYkQuW6hpiW3ylSoRqopv45SgGoI0ne6CQeZ9WUMLZxMof497IldlKr0hoY
iEECmPEpATaxdyW1ILHAwG+lRD7EY4XLKs09FEgc9sRShcuwHRMFqdyfp9W/KlY0
nVobcwap7abG4EIQQjMpXkfPs9SggDcI0Umk9WyCSM34tj4khCJk9uK3tTmaVJzp
ZKuSIiPVMLfC29+R2FiphfVVvD6sylFAOYyurzrDXS8sSx4ZCJ+kk2u6j6q/9Edg
jwUl3nGfAnevSiQL9uM3XE+AbSoI8gCOcuAx20fS0cu6DvRT3XTZXJzFxL01g7dm
2Mrfz+ltYQg+8MdwXVm7+8dWk9IEF8fROOKlDS6s2kBxuKs6qCTBZ9ZKPzmIOcx1
Ln/bZGyxhFSzMTRSyXlzGq7YpszXypkWt3ydGMalVUvqCcg14Fs=
=FXcc
-----END PGP SIGNATURE-----
