-----BEGIN PGP SIGNATURE-----

iQIzBAABCAAdFiEEDiJZF0FGcPRELCUN/VM8B8JkZI8FAmqtbsMACgkQ/VM8B8Jk
ZI9nqw/9HXy6Uq/rlBHw4uSDNZUQF93QBQSLmYlc8Vd9nVHjdN9jC2WZAtBetci3
sHAK8cirRNNxRNWfCSqpGPwASJC6KizJBL8xV8ltk3O3eXTHR77+lHbI3W9TJ3i0
37k8us2CsZtAXrt189Uw5J8iz5t6XnHpWYASj/wUN4AcPFTf2apYQFD/j3GiUBA+
UUq8pCyH4DAGCOavR5EBF1AfofUC7zTPXEAvr1MTKue9bQ9rC2V+Ue6qu/MDfMrJ
NYnourLVWzOD+ojGIQiXg8b77Z5irHH5LlRhi2zMmKWV74XHqr13OYlfQe1LnT94
nB9GQtiMTbDCZo6ElkFjHF2SVL6K8vIpkhZ0wP+aE9jSzyMzR6nJPF80TaktGUmK
sNdC1a9kjsHiGXAtr4ZfOdXRr7yJhaME6AgGhYoNd+oj/8ybFt6PTMH3KRSgYWGi
E+johMmk8jVEhYhnXPM4dfBKhHvNv/wM+WZNDeyk3WAyMVX8g4ocHtQsR0lBCcqa
cIEBEvlMGNb+yji5rMlvafnw65Xcm9Q/T/PUq0weGDsc9wUKT+yTLT6nFgY/u3ZN
BXEpRV4RYNPB19heCVWfeZMYE1K66jurTuaz4XU3gtCa3/Eqxh1KF3GLSfxxLODj
DuFYwJBvaBOE2gbj6QRy0GEkPqudsmnN4fn1H+et9fqGg/ae7U0=
=yXzW
-----END PGP SIGNATURE-----
