-----BEGIN PGP SIGNATURE-----
Version: BCPG v1.68

iQGcBAABCgAGBQJm5EdGAAoJED1YOaImLLv7fSEL/RxwcSzxSXZtl2OfPSsEZSL1
qQZQgSAVsARJ5Rd97AF5u/qGRifh61iB6jQczQoe0QnKhR6Auns6FhJ/ZbIFLEP7
Foi//ZKlI/BEPa7+e2VKXPMpjaBEbG/NvLcvoLSejYE4RkGPOwS92HqcW+G4WsDh
HViAzvaeV8EVzjIey+qDEegb9V1t9mLmr7VTWrakEazHVecFSaWDmTv4iH80OmG+
NpU8btDtBE7oSZT5f7xG6lDFv6X067bcofOXsMOGKmGa7V9bGd7v3U4UfivsEGvl
01tT2zdD1pMPuMcK5f2mMKGa3r64/ShLO/gkO3uoqBx/YCB9pPBJTxHcFS1dbX1n
0ALuyBVjObzWtv/PIuP+HQtWsSMcNolDX1Kn96/0YSNrRm4QcIqnW1pyj4bLxTp5
NL2moulwAFcgf6OCjrzTEVk82dxPWbCpxg/a8osTxm1W68N3cvJWdkWtpHC8kuQp
IEDuvtgEkgcKx9JGYva7qtkI3aFMGbGQYVVkE8DM2g==
=hrD/
-----END PGP SIGNATURE-----
